assets/Palm down hand/Medium-Light/Flat/palm_down_hand_flat_medium-light.svg

<svg width="32" height="32" viewBox="0 0 32 32" fill="none" xmlns="http://www.w3.org/2000/svg">
<path d="M14.6137 10.2617C14.8996 9.19474 15.9963 8.56157 17.0632 8.84745C17.4482 8.95062 17.7767 9.15936 18.026 9.43418C18.3142 9.27315 18.6464 9.18138 19 9.18138C19.5872 9.18138 20.1154 9.43447 20.4813 9.83752C20.7149 9.61618 21.0054 9.4482 21.3381 9.35905C22.405 9.07317 23.5017 9.70633 23.7876 10.7733L25.4513 16.9821C25.7371 18.0491 25.104 19.1457 24.037 19.4316C22.9701 19.7175 21.8734 19.0843 21.5876 18.0174L21 15.8246V16.6168C21 17.7213 20.1046 18.6168 19 18.6168C17.8954 18.6168 17 17.7213 17 16.6168V15.9962C16.5132 16.5442 15.742 16.8033 14.9857 16.6007C13.9188 16.3148 13.2856 15.2181 13.5715 14.1512L14.6137 10.2617Z" fill="#D6A089"/>
<path d="M2.02448 12.6093C2.02448 16.7573 3.72039 18.9178 7.33927 22.1685C8.42673 23.1006 9.81175 23.613 11.244 23.613H14.4185C14.8051 23.613 15.1744 23.5976 15.4387 23.8798C16.429 24.937 18.1338 24.8438 19.003 23.6849L19.0716 23.5934C19.7972 22.6259 19.6994 21.2717 18.8422 20.4185L18.2269 19.8061C17.4568 19.0397 16.4145 18.6094 15.328 18.6094H14.7767C13.7256 18.6094 12.7684 18.0042 12.3175 17.0547L12.2955 17.0083C12.117 16.6325 12.0245 16.2217 12.0245 15.8057V15.6094C12.0245 13.9525 13.3676 12.6094 15.0245 12.6094H20.211C20.7326 12.6094 21.2335 12.8131 21.607 13.1772L25.8628 17.3256C26.9094 18.3458 28.6142 18.2137 29.4911 17.0445C30.2505 16.0319 30.1023 14.6054 29.1509 13.7706L22.7226 8.13051C21.628 7.17016 20.2216 6.64062 18.7654 6.64062H9.20481C5.89383 6.64062 2.02448 8.46129 2.02448 12.6093Z" fill="#EEBFAA"/>
</svg>

<svg xmlns="http://www.w3.org/2000/svg" width="32" height="32" fill="none"><path fill="#D6A089" d="M14.614 10.262a2 2 0 0 1 3.412-.828 1.995 1.995 0 0 1 2.455.403 2 2 0 0 1 3.306.936l1.664 6.21a2 2 0 0 1-3.863 1.034L21 15.825v.792a2 2 0 0 1-4 0v-.62a2 2 0 0 1-3.428-1.846l1.042-3.89Z"/><path fill="#EEBFAA" d="M2.024 12.61c0 4.147 1.696 6.308 5.315 9.559a6 6 0 0 0 3.905 1.444h3.175c.386 0 .755-.015 1.02.267a2.33 2.33 0 0 0 3.564-.195l.069-.092a2.426 2.426 0 0 0-.23-3.174l-.615-.613a4.11 4.11 0 0 0-2.899-1.197h-.551a2.723 2.723 0 0 1-2.46-1.554l-.021-.047a2.803 2.803 0 0 1-.271-1.202v-.197a3 3 0 0 1 3-3h5.186a2 2 0 0 1 1.396.568l4.256 4.149a2.422 2.422 0 1 0 3.288-3.555l-6.428-5.64a6 6 0 0 0-3.958-1.49h-9.56c-3.311 0-7.18 1.82-7.18 5.968Z"/></svg>
